!!!COM: Palestrina, Giovanni Perluigi da
!!!OPR: Io mi son giovinetta (1570)
!!!OTL: Sanctus
**kern	**kern	**kern	**kern
*Ibass	*Itenor	*Icalto	*Icant
!Bassus	!Tenor	!Altus	!Cantus
*clefF4	*clefGv2	*clefG2	*clefG2
*k[b-]	*k[b-]	*k[b-]	*k[b-]
*G:dor	*G:dor	*G:dor	*G:dor
*M4/2	*M4/2	*M4/2	*M4/2
=1	=1	=1	=1
0r	0r	1r	1dd
.	.	1g	1dd
=2	=2	=2	=2
0r	0r	1g	2.ee
.	.	.	4dd
.	.	2.a	2cc
.	.	.	[2ff
.	.	4g	.
=3	=3	=3	=3
0r	0r	2f	2ff]
.	.	2g	2.ee
.	.	2f	.
.	.	.	4dd
.	.	2g	[2dd
=4	=4	=4	=4
0r	0r	1e	2dd]
.	.	.	2cc#
.	.	2d	2dd
.	.	[2g	2b-
=5	=5	=5	=5
1r	1d	2g]	1a
.	.	2f#	.
1G	1d	1g	[1g
=6	=6	=6	=6
1G	2.e	0r	1g]
.	4d	.	.
2.A	2c	.	1r
.	[2f	.	.
4G	.	.	.
=7	=7	=7	=7
2F	2f]	2r	0r
2G	2.e	2g	.
2F	.	2a	.
.	4d	.	.
2G	[2d	[2b-	.
=8	=8	=8	=8
1E	2d]	2b-]	1r
.	2c#	4a	.
.	.	4g	.
2D	1d	1f	2r
2d	.	.	2dd
=9	=9	=9	=9
2c	1r	2g	2ee
2A	.	2.a	1ff
1B-	1d	.	.
.	.	8g	.
.	.	8f	.
.	.	2g	4ee
.	.	.	4dd
=10	=10	=10	=10
1A	2e	1a	4cc
.	.	.	4b-
.	1f	.	4a
.	.	.	4g
2r	.	1d	2a
2G	4e	.	2b-
.	4d	.	.
=11	=11	=11	=11
2A	2c	0r	2a
1B-	1d	.	2f
.	.	.	2g
4A	4c	.	[2a
4G	4B-	.	.
=12	=12	=12	=12
2F	2A	0r	2a]
2G	2B-	.	4g
.	.	.	4f
2A	2c	.	2e
2B-	[2d	.	2d
=13	=13	=13	=13
1A	2d]	2r	1e
.	2c#	1a	.
1D	1d	.	2d
.	.	2b	2dd
=14	=14	=14	=14
2r	0r	4cc	2ee
.	.	4b-	.
1d	.	4a	1ff
.	.	4g	.
.	.	2f	.
4c	.	2g	4ee
4B-	.	.	4dd
=15	=15	=15	=15
2A	0r	4a	2cc
.	.	4g	.
1B-	.	4f	1dd
.	.	4e	.
.	.	2d	.
4A	.	2e	4cc
4G	.	.	4b-
=16	=16	=16	=16
2F	1d	4f	2a
.	.	4e	.
1G	.	4d	1b-
.	.	4c	.
.	2e	2B-	.
4F	[2f	2c	4a
4E	.	.	4g
=17	=17	=17	=17
2D	2f]	2d	2f
2E	4e	4c	2g
.	4d	4B-	.
1F	2c	2A	1a
.	[2d	[2f	.
=18	=18	=18	=18
0r	2d]	4f]	2b-
.	.	4d	.
.	4c	2e	1cc
.	4B-	.	.
.	2A	2f	.
.	2B-	[2g	2b-
=19	=19	=19	=19
1r	2c	2g]	1a
.	2d	2f#	.
2r	1G	1g	2.g
[2G	.	.	.
.	.	.	4a
=20	=20	=20	=20
4G]	2.d	0r	2b-
4A	.	.	.
2B-	.	.	2f
.	4e	.	.
2A	1f	.	2.a
2F	.	.	.
.	.	.	4b-
=21	=21	=21	=21
2.A	2e	0r	0cc
.	4c	.	.
4B-	4d	.	.
2.c	4e	.	.
.	4f	.	.
.	[2g	.	.
4B-	.	.	.
=22	=22	=22	=22
2A	4g]	1r	0r
.	4f	.	.
2F	1f	.	.
[1G	.	2r	.
.	4e	[2g	.
.	4d	.	.
=23	=23	=23	=23
1G]	2e	4g]	0r
.	.	4a	.
.	2d	2b-	.
[1F	1f	2a	.
.	.	2f	.
=24	=24	=24	=24
1F]	2.c	2.a	2r
.	.	.	2.cc
.	4d	4b-	.
1C	2.e-	2cc	.
.	.	.	4dd
.	.	[2g	2ee-
.	4d	.	.
=25	=25	=25	=25
2r	4B-	4g]	2dd
.	4c	4a	.
2.G	2d	2.b-	2b-
.	2G	.	2.dd
4A	.	4a	.
[2B-	[2d	[2f	.
.	.	.	4ee-
=26	=26	=26	=26
4B-]	4d]	4f]	2.ff
4A	4e-	4g	.
2F	2f	2a	.
.	.	.	4ee-
2G	2B-	2b-	2dd
2A	2c	2a	2cc
=27	=27	=27	=27
2B-	2d	2f	2b-
2E-	2e-	2g	1b-
1F	1c	1f	.
.	.	.	2a
=28	=28	=28	=28
0BB-	0B-	1d	1b-
.	.	2r	2r
.	.	2f	2dd
=29	=29	=29	=29
0r	0r	2g	2b-
.	.	2a	2cc
.	.	2.b-	2.dd
.	.	4a	4cc
=30	=30	=30	=30
0r	1r	2g	2b-
.	.	2f	2.a
.	2r	1b-	.
.	.	.	4g
.	2B-	.	[2g
=31	=31	=31	=31
0r	2c	1a	2g]
.	2d	.	2f#
.	1e-	[1g	2g
.	.	.	[2ee-
=32	=32	=32	=32
0r	2c	1g]	2ee-]
.	2B-	.	2dd
.	1e-	2r	4cc
.	.	.	4b-
.	.	[2g	4b-
.	.	.	8a
.	.	.	8g
=33	=33	=33	=33
2r	1d	2g]	1a
2d	.	2f#	.
2B-	1r	2g	1r
2c	.	[2a	.
=34	=34	=34	=34
2.d	0r	4a]	1f
.	.	4g	.
.	.	4f	.
4c	.	4e	.
2B-	.	2d	2g
[2A	.	2c#	2a
=35	=35	=35	=35
4A]	2r	1d	2.b-
4G	.	.	.
1G	2B-	.	.
.	.	.	4g
.	2c	1r	1a
2F#	2d	.	.
=36	=36	=36	=36
2.G	2e-	2r	1g
.	2d	2B-	.
4F	.	.	.
2E-	2c	2c	1r
2D	[2B-	2d	.
=37	=37	=37	=37
1C	2B-]	1e-	1r
.	2A	.	.
1BB-	[1B-	2d	2r
.	.	2f	2dd
=38	=38	=38	=38
0r	2B-]	2g	2b-
.	2A	2a	2cc
.	4G	1b-	[1dd
.	4A	.	.
.	4B-	.	.
.	4c	.	.
=39	=39	=39	=39
2r	4d	1a	2dd]
.	4e	.	.
2F	2f	.	2cc
2G	2d	2g	2b-
2A	2c	[2f	[2a
=40	=40	=40	=40
1B-	1d	4f]	4a]
.	.	4e	8g
.	.	.	8f
.	.	1d	2g
1A	1e	.	[1a
.	.	2c#	.
=41	=41	=41	=41
2r	2f	1d	1a]
2F	2d	.	.
2G	2B-	1r	1r
2A	2c	.	.
=42	=42	=42	=42
2.B-	2.d	2r	1r
.	.	2f	.
4A	4c	.	.
2G	2B-	2g	1dd
2F#	[2A	2a	.
=43	=43	=43	=43
2G	4A]	2b-	2b-
.	4G	.	.
2E-	1G	2g	2cc
1D	.	2b-	2.dd
.	2F#	2a	.
.	.	.	4cc
=44	=44	=44	=44
1r	2G	2g	2b-
.	2A	4f	2.a
.	.	4e-	.
2r	2.B-	1d	.
.	.	.	4g
2BB-	.	.	[2g
.	4G	.	.
=45	=45	=45	=45
2C	1A	1r	2g]
2D	.	.	2f#
1E-	1G	1B-	[1g
=46	=46	=46	=46
2C	2r	2c	1g]
2G	2B-	2d	.
2C	2c	2e-	2r
2G	2d	2d	2b-
=47	=47	=47	=47
1.C	2.e-	[0g	2.cc
.	4d	.	4dd
.	2c	.	2ee-
2BB	2d	.	2dd
=48	=48	=48	=48
1C	1e-	0g]	0cc
1C	1e-	.	.
=49	=49	=49	=49
0G	0d	0g	0b
!! Hosanna
*Ibass	*Itenor	*Icalto	*Icant
!Bassus	!Tenor	!Altus	!Cantus
*clefF4	*clefGv2	*clefG2	*clefG2
*k[b-]	*k[b-]	*k[b-]	*k[b-]
*G:dor	*G:dor	*G:dor	*G:dor
*M3/2	*M3/2	*M3/2	*M3/2
=50	=50	=50	=50
1r	1r	1d	1dd
2r	2r	2a	2dd
=51	=51	=51	=51
1r	2r	2f	2dd
.	1G	1g	1b-
2r	.	.	.
=52	=52	=52	=52
1r	2d	2.f	2a
.	2B-	.	1ff
.	.	4g	.
2r	[2c	2a	.
=53	=53	=53	=53
1r	2c]	2g	2ee
.	4B-	1b-	1dd
.	4c	.	.
2r	4d	.	.
.	4e	.	.
=54	=54	=54	=54
1r	2f	2a	2cc
.	1B-	2.b-	1dd
2r	.	.	.
.	.	4g	.
=55	=55	=55	=55
1r	2F	1a	2cc
.	1G	.	1b-
2r	.	2g	.
=56	=56	=56	=56
1D	2r	2.f	2.a
.	2d	.	.
.	.	4d	4b-
2A	2c	2e	2cc
=57	=57	=57	=57
2F	2d	2f	1a
1G	1B-	2d	.
.	.	2e	2g
=58	=58	=58	=58
2.F	2A	1f	1a
.	1f	.	.
4G	.	.	.
4A	.	2r	2r
4B-	.	.	.
=59	=59	=59	=59
1c	2e	1r	1r
.	1d	.	.
2B-	.	2r	2r
=60	=60	=60	=60
2A	2c	1a	1r
2D	2.d	.	.
2E	.	2g	2r
.	4c	.	.
=61	=61	=61	=61
2F	1c	2a	1r
1D	.	1f	.
.	2B	.	2r
=62	=62	=62	=62
2.A	2.c	2e	1r
.	.	1cc	.
4B-	4d	.	.
2c	2e	.	2r
=63	=63	=63	=63
2.d	1f	2b-	1dd
.	.	2.a	.
4c	.	.	.
2A	2e	.	2cc
.	.	4g	.
=64	=64	=64	=64
2B-	2d	1f	2dd
1G	1g	.	1b-
.	.	2e	.
=65	=65	=65	=65
2F	2c	1f	2a
4D	1d	.	1ff
4E	.	.	.
4F	.	2r	.
4G	.	.	.
=66	=66	=66	=66
2A	2c	1a	2ee
2D	2d	.	1dd
2r	2B-	2g	.
=67	=67	=67	=67
2r	2A	2a	2cc
2d	2r	2f	2.b-
2c	2r	2e	.
.	.	.	4a
=68	=68	=68	=68
2d	2r	1f	1a
1B-	1d	.	.
.	.	2d	2g
=69	=69	=69	=69
1.A	2c	2e	1a
.	4A	4c	.
.	4B-	4d	.
.	4c	4e	2r
.	4d	4f	.
=70	=70	=70	=70
1r	2e	2g	1cc
.	2f	2.a	.
2r	2g	.	2b-
.	.	4g	.
=71	=71	=71	=71
1r	2c	1g	2cc
.	1d	.	1a
2r	.	2f#	.
=72	=72	=72	=72
1c	2.e-	2g	1.g
.	.	2r	.
.	4c	.	.
2B-	2d	2r	.
=73	=73	=73	=73
2c	2e-	1g	2r
1A	1c	.	1cc
.	.	2f	.
=74	=74	=74	=74
1.G	2d	2g	2b-
.	2r	2e-	4g
.	.	.	4a
.	2r	2d	4b-
.	.	.	4cc
=75	=75	=75	=75
1r	1g	2.b-	2dd
.	.	.	2.ee-
.	.	4g	.
2r	2f	2a	.
.	.	.	4dd
=76	=76	=76	=76
1r	2g	2b-	1dd
.	1e-	1g	.
2r	.	.	2cc
=77	=77	=77	=77
1B-	1d	2f	2dd
.	.	2.g	2dd
2A	[2f	.	2cc
.	.	4f	.
=78	=78	=78	=78
2B-	2f]	1f	2dd
1G	1g	.	1b-
.	.	2e	.
=79	=79	=79	=79
1.F	2c	2.f	2a
.	2r	.	1ff
.	.	4g	.
.	2d	4a	.
.	.	4f	.
=80	=80	=80	=80
1r	2c	2g	2ee
.	2d	2f	2.ff
2r	[2B-	[2d	.
.	.	.	4ee
=81	=81	=81	=81
1r	2B-]	2d]	1dd
.	1A	1e	.
2r	.	.	2cc#
=82	=82	=82	=82
1G	1B-	1.d	2dd
.	.	.	2g
2F	2A	.	2a
=83	=83	=83	=83
2G	1d	2r	2b-
1E-	.	1g	2.a
.	2c	.	.
.	.	.	4g
=84	=84	=84	=84
[1.D	1d	2.f	2b-
.	.	.	2.a
.	.	4e-	.
.	[2B-	4d	.
.	.	4c	4g
=85	=85	=85	=85
1.D]	2B-]	1.d	1g
.	1A	.	.
.	.	.	2f#
=86	=86	=86	=86
2r	1.G	2.B-	[1.g
1G	.	.	.
.	.	4c	.
.	.	2d	.
=87	=87	=87	=87
2C	1c	2e-	1.g]
1G	.	1d	.
.	2B	.	.
=88	=88	=88	=88
2.C	2c	2e-	[1.g
.	1e-	2c	.
4D	.	.	.
2E-	.	[2B-	.
=89	=89	=89	=89
2BB-	2d	2B-]	1.g]
1C	1c	1e-	.
=90	=90	=90	=90
1.G	1.B	1.d	1.g
==	==	==	==
*-	*-	*-	*-
!!!CDT: 1525/^1526/-1594/2/2
!!!OCY: Italia
!!!AGN: Mass (Parody)
!!!AST: renaissance, vocal
!!!ASW: Madrigal 1542 (Ferabosco)
!!!PWK: Masses, Book 3
!!!RNB: Cadence finals: A
!!!YOR: Le Opere Complete, v. 6, p. 30
!!!YOO: Rome, Italy: Fratelli Scalera
!!!END: 1992//
!!!EED: John Miller
!!!YEC: Copyright 2000, John Miller
!!!YEN: United States of America
!!!YEM: Rights to all derivative electronic formats reserved.
!!!YEM: Refer to licensing agreement for further details.
!!!YEM: This file must be accompanied by the licensing agreement.
!!!YEM: A copy of the licensing agreement may be found at http://www.music-cog.ohio-state.edu/HumdrumDatabases/Palestrina/license.txt
!!!EMD: converted to Humdrum by Bret Aarden
